icon-themes/sifr_svg/cmd/lc_tabdialog.svg

<svg viewBox="0 0 24 24" xmlns="http://www.w3.org/2000/svg"><path d="m.609375 0c-.3458 0-.609375.263945-.609375.609375v13.775391c0 .34545.263575.609375.609375.609375h7.0292969c.10707-.5234.305525-1.02259.515625-1.5h-6.0449219c-.3319-.00027-.609375-.277825-.609375-.609375v-10.7773441c0-.3315199.277475-.6074219.609375-.6074219h10.777344c.3319 0 .609095.275902.609375.6074219v6.046875c.47745-.21008.97656-.408525 1.5-.515625v-7.0292969c0-.34543-.263565-.609375-.609375-.609375zm9.708984 2.9921875-3.9374996 4.7988281-1.6875-2.4003906-1.6855469 1.8007812 3.3730469 4.7968748 5.6230466-7.1972654zm6.175782 6.0136719c-4.13669 0-7.4902348 3.3538546-7.4902348 7.4902346s3.3535448 7.488281 7.4902348 7.488281c4.1367 0 7.490234-3.351901 7.490234-7.488281s-3.353534-7.4902346-7.490234-7.4902346zm-.007813 1.8964846c3.09473 0 5.603516 2.507022 5.603516 5.601562 0 3.09459-2.508786 5.603516-5.603516 5.603516-3.09474 0-5.603516-2.508926-5.603516-5.603516-.000069-3.09454 2.508776-5.601562 5.603516-5.601562zm.007813 2.609375c-1.64809 0-2.984375 1.336425-2.984375 2.984375 0 1.64799 1.336285 2.982422 2.984375 2.982422 1.64812 0 2.984375-1.334432 2.984375-2.982422 0-1.64795-1.336255-2.984375-2.984375-2.984375zm-13.494141 2.984375v4.498047h.7480469.75 1.5v1.498047l3-2.248047-3-2.25v1.5h-1.5v-2.998047z" fill="#555753"/></svg>

<svg xmlns="http://www.w3.org/2000/svg" viewBox="0 0 24 24">
 <path
     style="fill:#555753"
     d="M 0.609375 0 C 0.263575 0 -1.4802974e-16 0.263945 0 0.609375 L 0 14.384766 C 0 14.730216 0.263575 14.994141 0.609375 14.994141 L 7.6386719 14.994141 C 7.7457419 14.470741 7.9441969 13.971551 8.1542969 13.494141 L 2.109375 13.494141 C 1.777475 13.493871 1.5 13.216316 1.5 12.884766 L 1.5 2.1074219 C 1.5 1.775902 1.777475 1.5 2.109375 1.5 L 12.886719 1.5 C 13.218619 1.5 13.495814 1.775902 13.496094 2.1074219 L 13.496094 8.1542969 C 13.973544 7.9442169 14.472654 7.7457719 14.996094 7.6386719 L 14.996094 0.609375 C 14.996094 0.263945 14.732529 0 14.386719 0 L 0.609375 0 z M 10.318359 2.9921875 L 6.3808594 7.7910156 L 4.6933594 5.390625 L 3.0078125 7.1914062 L 6.3808594 11.988281 L 12.003906 4.7910156 L 10.318359 2.9921875 z M 16.494141 9.0058594 C 12.357451 9.0058594 9.0039062 12.359714 9.0039062 16.496094 C 9.0039062 20.632474 12.357451 23.984375 16.494141 23.984375 C 20.630841 23.984375 23.984375 20.632474 23.984375 16.496094 C 23.984375 12.359714 20.630841 9.0058594 16.494141 9.0058594 z M 16.486328 10.902344 C 19.581058 10.902344 22.089844 13.409366 22.089844 16.503906 C 22.089844 19.598496 19.581058 22.107422 16.486328 22.107422 C 13.391588 22.107422 10.882812 19.598496 10.882812 16.503906 C 10.882743 13.409366 13.391588 10.902344 16.486328 10.902344 z M 16.494141 13.511719 C 14.846051 13.511719 13.509766 14.848144 13.509766 16.496094 C 13.509766 18.144084 14.846051 19.478516 16.494141 19.478516 C 18.142261 19.478516 19.478516 18.144084 19.478516 16.496094 C 19.478516 14.848144 18.142261 13.511719 16.494141 13.511719 z M 3 16.496094 L 3 20.994141 L 3.7480469 20.994141 L 4.4980469 20.994141 L 5.9980469 20.994141 L 5.9980469 22.492188 L 8.9980469 20.244141 L 5.9980469 17.994141 L 5.9980469 19.494141 L 4.4980469 19.494141 L 4.4980469 16.496094 L 3 16.496094 z "
     />
 </svg>
